X: 34600
T: River Road, The
R: reel
M: 4/4
K: Dmajor
eg|ed (3ddd Adad|AGAd =cAG=F|EG=cB CAGE|Dddc dAGE|
Addc dfeg|fd (3ddd Adad|AGAd =cAG2|EGAG =cAG=F|
EGDG ED=CD|E2 (3GGG =cGAG|EGAB =cBcB|A2 (3ddd Adad|
AGAd =cAG2|EGAG =cAG=F|EGDG ED=CD|E2 (3ddd =cGAG|
EGAB =cBcB|A2 (3ddd Adad|AGAd =cAG=F|E=ccB cAGE|Dddc dfeg|
ef (3ddd Adad|AGAd =cAG=F|E=ccB cAGE|Dddc dAGE|Addc d4|

